X: 1
T: Nathaniel Gow's Quickstep
M: 6/8
L: 1/8
R: jig
K: Gmaj
|: D | GFG ABc | dBG G2 B | cBc EFG | AFD D2 F | 
G2 G AA/B/c | dBG GAB | c2 c DD/E/F | GBA G2 :|
|: e/f/ | ge/f/g efg | fdB B2 d | e^de c=de | dBG G2 d | 
[1 g2 g eag | fd^c d2 g | fed ed^c | dAf d2 :|
[2 ece faf | g/a/ba gfe | dcB AGF | GDB G2 |]
